src/images/office--roof__red.svg

<?xml version="1.0" encoding="UTF-8" standalone="no"?>
<!-- Created with Inkscape (http://www.inkscape.org/) -->

<svg
   xmlns:dc="http://purl.org/dc/elements/1.1/"
   xmlns:cc="http://creativecommons.org/ns#"
   xmlns:rdf="http://www.w3.org/1999/02/22-rdf-syntax-ns#"
   xmlns:svg="http://www.w3.org/2000/svg"
   xmlns="http://www.w3.org/2000/svg"
   xmlns:sodipodi="http://sodipodi.sourceforge.net/DTD/sodipodi-0.dtd"
   xmlns:inkscape="http://www.inkscape.org/namespaces/inkscape"
   id="svg8"
   width="500"
   height="500"
   version="1.1"
   viewBox="0 0 500 500"
   sodipodi:docname="office--roof__red.svg"
   inkscape:version="0.92.3 (2405546, 2018-03-11)">
  <defs
     id="defs5044" />
  <sodipodi:namedview
     pagecolor="#ffffff"
     bordercolor="#666666"
     borderopacity="1"
     objecttolerance="10"
     gridtolerance="10"
     guidetolerance="10"
     inkscape:pageopacity="0"
     inkscape:pageshadow="2"
     inkscape:window-width="1958"
     inkscape:window-height="2020"
     id="namedview5042"
     showgrid="false"
     inkscape:zoom="1.888"
     inkscape:cx="235.04762"
     inkscape:cy="250"
     inkscape:window-x="1867"
     inkscape:window-y="0"
     inkscape:window-maximized="0"
     inkscape:current-layer="g7530"
     inkscape:snap-object-midpoints="true"
     inkscape:measure-start="0,0"
     inkscape:measure-end="0,0" />
  <metadata
     id="metadata5">
    <rdf:RDF>
      <cc:Work
         rdf:about="">
        <dc:format>image/svg+xml</dc:format>
        <dc:type
           rdf:resource="http://purl.org/dc/dcmitype/StillImage" />
        <dc:title></dc:title>
      </cc:Work>
    </rdf:RDF>
  </metadata>
  <g
     id="g5161"
     transform="translate(463.05 -413.96)">
    <g
       id="g5102"
       transform="matrix(.45109 0 0 .45109 454.33 530.35)">
      <g
         id="g5037"
         fill-opacity=".39216">
        <g
           id="g5161-0"
           transform="matrix(2.2168525,0,0,2.2168525,-1006.6994,-1174.1909)">
          <g
             transform="matrix(0.45108687,0,0,0.45108687,454.33495,530.35256)"
             id="g5102-7">
            <rect
               style="opacity:1;fill:#6e7435;fill-opacity:0.84593021;stroke:none;stroke-width:2.46726322;stroke-miterlimit:4;stroke-dasharray:none;stroke-opacity:1"
               id="rect4579-5-3-2-0-9-3-5"
               width="399.31595"
               height="211.6489"
               x="-1287.7224"
               y="467.7157"
               transform="matrix(1,0,-0.70548897,0.7087209,0,0)" />
            <rect
               style="opacity:1;fill:#203632;fill-opacity:0.39215686;stroke:none;stroke-width:2.40358853;stroke-miterlimit:4;stroke-dasharray:none;stroke-opacity:1"
               id="rect4579-5-3-9-4"
               width="400"
               height="200"
               x="-1617.6907"
               y="131.47989" />
            <rect
               style="opacity:1;fill:#385e57;fill-opacity:0.39215686;stroke:none;stroke-width:1.75038373;stroke-miterlimit:4;stroke-dasharray:none;stroke-opacity:1"
               id="rect4579-5-5-6-6"
               width="212.13206"
               height="199.99997"
               x="-2499.8921"
               y="-1486.2107"
               transform="matrix(0.70710678,-0.70710678,0,1,0,0)" />
            <rect
               style="opacity:1;fill:#385e57;fill-opacity:0.39215686;stroke:none;stroke-width:1.75038373;stroke-miterlimit:4;stroke-dasharray:none;stroke-opacity:1"
               id="rect4579-5-5-4-4-5"
               width="212.13202"
               height="199.99997"
               x="-1934.2067"
               y="-1086.2108"
               transform="matrix(0.70710678,-0.70710678,0,1,0,0)" />
            <rect
               style="opacity:1;fill:#203633;fill-opacity:0.39215686;stroke:none;stroke-width:2.40358853;stroke-miterlimit:4;stroke-dasharray:none;stroke-opacity:1"
               id="rect4579-5-3-5-8"
               width="400"
               height="200"
               x="-1767.6907"
               y="281.47986" />
          </g>
        </g>
        <g
           id="g7530">
          <rect
             style="fill:#b2b4a1;fill-opacity:0.99709302"
             height="211.65001"
             width="399.32001"
             y="185.53392"
             x="-1486.803"
             transform="matrix(1,0,-0.70548995,0.70871995,0,0)"
             id="rect4579-5-3-2-0-9-3" />
          <path
             sodipodi:nodetypes="ccccc"
             inkscape:connector-curvature="0"
             id="rect4579-5-5-4-4"
             transform="matrix(2.2168525,0,0,2.2168525,-2033.6962,-258.01946)"
             d="m 368.0918,85.486328 -67.66407,67.664062 c 0.12636,59.63057 -0.32888,126.11482 -0.30859,180.43555 l 67.66406,-67.66406 c -0.12636,-59.63057 0.32889,-126.11481 0.3086,-180.435552 z"
             style="fill:#b88576;fill-opacity:1;stroke-width:0.37932083" />
          <path
             style="fill:#a96b59;fill-opacity:1;stroke-width:0.45109001"
             d="M 120.29883 153.15039 C 120.42774 212.78667 119.97227 279.09205 119.99219 333.58594 L 300.42773 333.58594 C 300.29807 273.94942 300.75639 207.64626 300.73633 153.15039 L 120.29883 153.15039 z M 133.89453 171.87109 L 287.59961 171.87109 L 287.59961 234.00977 L 133.89453 234.00977 L 133.89453 171.87109 z M 133.58594 258.08789 L 287.29102 258.08789 L 287.29102 320.22656 L 133.58594 320.22656 L 133.58594 258.08789 z "
             transform="matrix(2.2168525,0,0,2.2168525,-2033.6962,-258.01946)"
             id="rect4579-5-3-5" />
          <rect
             style="fill:#d3b3aa;fill-opacity:1;stroke-width:1"
             height="211.65001"
             width="399.32001"
             y="-96.66301"
             x="-1685.2078"
             transform="matrix(1,0,-0.70548994,0.70871994,0,0)"
             id="rect4579-5-3-2-0-9-3-4" />
          <rect
             style="fill:#1d1e18;fill-opacity:0.99709305;stroke-width:1"
             height="177.67628"
             width="335.22177"
             y="-79.676147"
             x="-1653.1587"
             transform="matrix(1,0,-0.70548993,0.70871994,0,0)"
             id="rect4579-5-3-2-0-9-3-4-4" />
          <g
             style="stroke-width:1.59641266"
             transform="matrix(0.62640446,0,0,0.62640446,-527.53368,-156.92226)"
             id="g5626">
            <path
               style="opacity:1;fill:#131313;fill-opacity:1;stroke:none;stroke-width:17.69505692;stroke-miterlimit:4;stroke-dasharray:none;stroke-opacity:1"
               d="m -1410.1627,197.81386 c 0,0 13.2087,-6.64216 20.3416,-6.64216 7.1329,0 20.3416,6.64216 20.3416,6.64216 V -84.478227 c 0,0 -13.2087,-6.64215 -20.3416,-6.64215 -7.1329,0 -20.3416,6.64215 -20.3416,6.64215 z"
               id="rect5606-1"
               inkscape:connector-curvature="0"
               sodipodi:nodetypes="csccscc" />
            <path
               style="opacity:1;fill:#626262;fill-opacity:1;stroke:none;stroke-width:17.69505692;stroke-miterlimit:4;stroke-dasharray:none;stroke-opacity:1"
               d="m -1410.1627,-84.478227 c 0,0 13.2087,6.642167 20.3416,6.642167 7.1329,0 20.3416,-6.642167 20.3416,-6.642167 V 197.81386 c 0,0 -13.2087,6.64217 -20.3416,6.64217 -7.1329,0 -20.3416,-6.64217 -20.3416,-6.64217 z"
               id="rect5606"
               inkscape:connector-curvature="0"
               sodipodi:nodetypes="csccscc" />
          </g>
          <g
             style="stroke-width:1.44117761"
             id="g5626-4"
             transform="matrix(0.693877,0,0,0.693877,-471.95136,-115.91955)">
            <path
               style="opacity:1;fill:#131313;fill-opacity:1;stroke:none;stroke-width:15.97439194;stroke-miterlimit:4;stroke-dasharray:none;stroke-opacity:1"
               d="m -1410.1627,197.81386 c 0,0 13.2087,-6.64216 20.3416,-6.64216 7.1329,0 20.3416,6.64216 20.3416,6.64216 V -84.478227 c 0,0 -13.2087,-6.64215 -20.3416,-6.64215 -7.1329,0 -20.3416,6.64215 -20.3416,6.64215 z"
               id="rect5606-1-0"
               inkscape:connector-curvature="0"
               sodipodi:nodetypes="csccscc" />
            <path
               style="opacity:1;fill:#626262;fill-opacity:1;stroke:none;stroke-width:15.97439194;stroke-miterlimit:4;stroke-dasharray:none;stroke-opacity:1"
               d="m -1410.1627,-84.478227 c 0,0 13.2087,6.642167 20.3416,6.642167 7.1329,0 20.3416,-6.642167 20.3416,-6.642167 V 197.81386 c 0,0 -13.2087,6.64217 -20.3416,6.64217 -7.1329,0 -20.3416,-6.64217 -20.3416,-6.64217 z"
               id="rect5606-10"
               inkscape:connector-curvature="0"
               sodipodi:nodetypes="csccscc" />
          </g>
          <rect
             y="122.99403"
             x="-1736.8708"
             height="137.75169"
             width="340.7406"
             id="rect5589-9"
             style="opacity:1;fill:#8ae4e4;fill-opacity:0.68604653;stroke:#35362b;stroke-width:11.08426285;stroke-miterlimit:4;stroke-dasharray:none;stroke-opacity:1" />
          <rect
             y="314.12387"
             x="-1737.5559"
             height="137.75169"
             width="340.7406"
             id="rect5589-9-7"
             style="opacity:1;fill:#8ae4e4;fill-opacity:0.68604653;stroke:#35362b;stroke-width:11.08426285;stroke-miterlimit:4;stroke-dasharray:none;stroke-opacity:1" />
        </g>
        <rect
           style="opacity:1;fill:#772d1a;fill-opacity:1;stroke:none;stroke-width:26.09613037;stroke-linecap:butt;stroke-linejoin:bevel;stroke-miterlimit:4;stroke-dasharray:none;stroke-opacity:1"
           id="rect7571"
           width="208.26836"
           height="25.022514"
           x="-1895.447"
           y="-1037.3145"
           transform="matrix(0.72164132,-0.69226715,0,1,0,0)" />
        <rect
           style="opacity:1;fill:#772d1a;fill-opacity:1;stroke:none;stroke-width:22.16852379;stroke-linecap:butt;stroke-linejoin:bevel;stroke-miterlimit:4;stroke-dasharray:none;stroke-opacity:1"
           id="rect7588"
           width="399.03345"
           height="22.168526"
           x="-1766.8663"
           y="274.84131" />
      </g>
    </g>
  </g>
</svg>

<?xml version="1.0" encoding="UTF-8"?>
<!-- Created with Inkscape (http://www.inkscape.org/) -->
<svg id="svg8" width="500" height="500" version="1.1" viewBox="0 0 500 500" xmlns="http://www.w3.org/2000/svg" xmlns:cc="http://creativecommons.org/ns#" xmlns:dc="http://purl.org/dc/elements/1.1/" xmlns:rdf="http://www.w3.org/1999/02/22-rdf-syntax-ns#">
 <metadata id="metadata5">
  <rdf:RDF>
   <cc:Work rdf:about="">
    <dc:format>image/svg+xml</dc:format>
    <dc:type rdf:resource="http://purl.org/dc/dcmitype/StillImage"/>
    <dc:title/>
   </cc:Work>
  </rdf:RDF>
 </metadata>
 <g id="g5161" transform="translate(463.05 -413.96)">
  <g id="g5102" transform="matrix(.45109 0 0 .45109 454.33 530.35)">
   <g id="g5037" fill-opacity=".39216">
    <g id="g5161-0" transform="matrix(2.2169 0 0 2.2169 -1006.7 -1174.2)">
     <g id="g5102-7" transform="matrix(.45109 0 0 .45109 454.33 530.35)">
      <rect id="rect4579-5-3-2-0-9-3-5" transform="matrix(1 0 -.70549 .70872 0 0)" x="-1287.7" y="467.72" width="399.32" height="211.65" fill="#6e7435" fill-opacity=".84593"/>
      <g fill-opacity=".39216">
       <rect id="rect4579-5-3-9-4" x="-1617.7" y="131.48" width="400" height="200" fill="#203632"/>
       <rect id="rect4579-5-5-6-6" transform="matrix(.70711 -.70711 0 1 0 0)" x="-2499.9" y="-1486.2" width="212.13" height="200" fill="#385e57"/>
       <rect id="rect4579-5-5-4-4-5" transform="matrix(.70711 -.70711 0 1 0 0)" x="-1934.2" y="-1086.2" width="212.13" height="200" fill="#385e57"/>
       <rect id="rect4579-5-3-5-8" x="-1767.7" y="281.48" width="400" height="200" fill="#203633"/>
      </g>
     </g>
    </g>
    <g id="g7530">
     <rect id="rect4579-5-3-2-0-9-3" transform="matrix(1 0 -.70549 .70872 0 0)" x="-1486.8" y="185.53" width="399.32" height="211.65" fill="#b2b4a1" fill-opacity=".99709"/>
     <g fill-opacity="1">
      <path id="rect4579-5-5-4-4" transform="matrix(2.2169 0 0 2.2169 -2033.7 -258.02)" d="m368.09 85.486-67.664 67.664c0.12636 59.631-0.32888 126.11-0.30859 180.44l67.664-67.664c-0.12636-59.631 0.32889-126.11 0.3086-180.44z" fill="#cb776b" stroke-width=".37932"/>
      <path id="rect4579-5-3-5" transform="matrix(2.2169 0 0 2.2169 -2033.7 -258.02)" d="m120.3 153.15c0.12891 59.636-0.32656 125.94-0.30664 180.44h180.44c-0.12966-59.637 0.32866-125.94 0.3086-180.44h-180.44zm13.596 18.721h153.71v62.139h-153.71v-62.139zm-0.30859 86.217h153.71v62.139h-153.71v-62.139z" fill="#974135" stroke-width=".45109"/>
      <rect id="rect4579-5-3-2-0-9-3-4" transform="matrix(1 0 -.70549 .70872 0 0)" x="-1685.2" y="-96.663" width="399.32" height="211.65" fill="#d3b3aa"/>
     </g>
     <rect id="rect4579-5-3-2-0-9-3-4-4" transform="matrix(1 0 -.70549 .70872 0 0)" x="-1653.2" y="-79.676" width="335.22" height="177.68" fill="#1d1e18" fill-opacity=".99709"/>
     <g id="g5626" transform="matrix(.6264 0 0 .6264 -527.53 -156.92)" fill-opacity="1" stroke-width="1.5964">
      <path id="rect5606-1" d="m-1410.2 197.81s13.209-6.6422 20.342-6.6422 20.342 6.6422 20.342 6.6422v-282.29s-13.209-6.6422-20.342-6.6422-20.342 6.6422-20.342 6.6422z" fill="#131313"/>
      <path id="rect5606" d="m-1410.2-84.478s13.209 6.6422 20.342 6.6422 20.342-6.6422 20.342-6.6422v282.29s-13.209 6.6422-20.342 6.6422-20.342-6.6422-20.342-6.6422z" fill="#626262"/>
     </g>
     <g id="g5626-4" transform="matrix(.69388 0 0 .69388 -471.95 -115.92)" fill-opacity="1" stroke-width="1.4412">
      <path id="rect5606-1-0" d="m-1410.2 197.81s13.209-6.6422 20.342-6.6422 20.342 6.6422 20.342 6.6422v-282.29s-13.209-6.6422-20.342-6.6422-20.342 6.6422-20.342 6.6422z" fill="#131313"/>
      <path id="rect5606-10" d="m-1410.2-84.478s13.209 6.6422 20.342 6.6422 20.342-6.6422 20.342-6.6422v282.29s-13.209 6.6422-20.342 6.6422-20.342-6.6422-20.342-6.6422z" fill="#626262"/>
     </g>
     <rect id="rect5589-9" x="-1736.9" y="122.99" width="340.74" height="137.75" fill="#8ae4e4" fill-opacity=".68605" stroke="#35362b" stroke-width="11.084"/>
     <rect id="rect5589-9-7" x="-1737.6" y="314.12" width="340.74" height="137.75" fill="#8ae4e4" fill-opacity=".68605" stroke="#35362b" stroke-width="11.084"/>
    </g>
    <rect id="rect7571" transform="matrix(.72164 -.69227 0 1 0 0)" x="-1895.4" y="-1037.3" width="208.27" height="25.023" fill="#772d1a" fill-opacity="1"/>
    <rect id="rect7588" x="-1766.9" y="274.84" width="399.03" height="22.169" fill="#772d1a" fill-opacity="1"/>
   </g>
  </g>
 </g>
</svg>
